images/wikipedia-wordmark-atj.svg

<?xml version="1.0" encoding="UTF-8"?>
<svg xmlns="http://www.w3.org/2000/svg" width="138" height="21" viewBox="0 0 129 18">
	<title>
		atj-wordmark
	</title>
	<g id="Page-1" fill="none" fill-rule="evenodd" stroke="none" stroke-width="1">
		<path id="atj-wordmark" fill="#72777D" fill-rule="nonzero" d="M97.4688001,4.91478734 C99.5229435,4.91478734 100.676024,5.33381657 101.652092,5.33381657 C101.90411,6.51489897 101.953113,7.60797523 101.959113,8.68605045 C101.703096,8.85406217 101.447078,8.8430614 101.18906,8.76505596 C100.881038,6.93192807 99.6759541,5.78084776 97.624811,5.78084776 C95.7006768,5.78084776 93.7005372,6.69691167 93.7005372,11.0952185 C93.7005372,13.6873994 95.1866409,16.490595 97.7278182,16.490595 C99.444938,16.490595 100.342001,15.9675585 101.523083,14.5524597 C101.777101,14.6414659 101.918111,14.9034842 102.037119,15.0744962 C100.832035,16.7246113 99.5989488,17.4846643 97.5988092,17.4846643 C95.7006768,17.4846643 94.2615764,16.9526272 93.2375049,15.9915601 C91.9794172,14.8064775 91.4663814,13.0183527 91.4663814,11.3562367 C91.4663814,7.53196993 94.083564,4.91478734 97.4688001,4.91478734 Z M15.2160616,0.00444475454 C16.4946335,-0.00452138824 19.2016666,0.00258969052 19.7480598,0.00415689978 L19.8453846,0.00444475454 L19.9033886,0.0614487316 L19.9033886,0.557483339 C19.9033886,0.696493037 19.8253832,0.762497642 19.6743726,0.762497642 C18.9283206,0.797500084 18.7743098,0.869505108 18.5012908,1.26453267 C18.3532805,1.47654746 18.0592599,1.93757962 17.7542387,2.45561577 L17.7542387,2.45561577 L15.136056,7.35195737 C15.136056,7.35195737 15.1105838,7.40519311 15.0632757,7.50386854 L18.2622741,14.0504247 L18.4552876,14.1034284 L23.4956392,2.14159386 C23.6716515,1.65956023 23.6436496,1.31753637 23.4186339,1.11652234 C23.1926181,0.923508875 23.033607,0.804500572 22.4495662,0.780498898 L21.9765332,0.759497433 C21.9175291,0.759497433 21.8635254,0.738495967 21.8105217,0.696493037 C21.758518,0.659490455 21.7315162,0.610487037 21.7315162,0.55148292 L21.7315162,0.0534481734 L21.8035212,0.002444615 L27.4969184,0.002444615 L27.4969184,0.002444615 L27.5559225,0.0534481734 L27.5559225,0.55148292 C27.5559225,0.686492339 27.4789171,0.754497084 27.3269065,0.754497084 C26.5808545,0.787499386 26.0278159,0.949510689 25.6697909,1.23853085 C25.3117659,1.52955116 25.0307463,1.92757893 24.8297323,2.45161549 C24.8297323,2.45161549 20.1944089,13.0583555 18.6082983,16.5876017 C18.0012559,17.7436824 17.4042142,17.637675 16.8791776,16.5545994 C16.2219837,15.2010999 14.8575719,12.2165047 13.8548372,10.0091045 C12.7826847,12.2222041 11.3136819,15.2218375 10.5847385,16.5716006 C9.87668907,17.8016864 9.29464846,17.6406752 8.82961602,16.6026028 C7.21850362,12.8013376 3.91027281,6.1268719 2.35316417,2.38661095 C2.06514408,1.69656281 1.84812894,1.25553204 1.64311464,1.07951976 C1.43710026,0.907507759 1.0090704,0.801500363 0.358024978,0.766497921 C0.119008303,0.738495967 -8.8817842e-13,0.68249206 -8.8817842e-13,0.588485502 L-8.8817842e-13,0.588485502 L-8.8817842e-13,0.0674491502 L0.0590041166,0.015445522 C0.962331845,0.0103275179 4.82755393,0.0139402267 5.94484833,0.0151134716 L6.24843594,0.015445522 L6.30744005,0.0674491502 L6.30744005,0.562483687 C6.30744005,0.700493316 6.22043398,0.765497851 6.04942205,0.765497851 L6.04942205,0.765497851 L5.40337698,0.792499735 C4.84933833,0.81450127 4.572319,0.980512852 4.572319,1.28753427 C4.572319,1.43054425 4.63132312,1.66356051 4.76033212,1.97558228 C5.99941856,4.99979327 10.2827174,14.0314234 10.2827174,14.0314234 L10.2827174,14.0314234 L10.4397284,14.0724262 L13.199822,8.56456815 C12.8621919,7.81866387 12.6468823,7.3409566 12.6468823,7.3409566 L10.7477498,3.61069635 C10.7477498,3.61069635 10.3817243,2.8646443 10.2567156,2.616627 C9.42265739,0.966511876 9.44065865,0.878505736 8.59759983,0.764497781 C8.36158337,0.733495619 8.23957485,0.703493525 8.23957485,0.586485362 L8.23957485,0.0634488711 L8.31057981,0.0124453127 L8.63835142,0.0120713607 C10.2696498,0.0104451732 13.2229225,0.0104451732 13.2229225,0.0104451732 L13.3529316,0.0534481734 L13.3529316,0.574484525 C13.3529316,0.693492828 13.2679257,0.754497084 13.0949136,0.754497084 L12.7388888,0.805500642 C11.839826,0.875505526 11.9858362,1.2435312 12.5838779,2.4346143 L14.405,6.16 L16.4191455,2.14159386 C16.7346342,1.45554599 16.6955559,1.24951384 16.5759233,1.08686605 L16.5491546,1.05251788 C16.469149,0.958511317 16.2001302,0.802500433 15.6170896,0.781498968 L15.6170896,0.781498968 L15.3880736,0.756497223 C15.3290695,0.756497223 15.2760658,0.736495828 15.2230621,0.697493107 C15.1710584,0.660490525 15.1450566,0.612487176 15.1450566,0.55148292 L15.1450566,0.55148292 L15.1450566,0.0554483129 Z M89.6492546,4.94778964 C89.6492546,6.09886995 89.6752564,7.27795221 89.856269,8.53403984 C89.6612554,8.65704842 89.4232388,8.66904926 89.1632207,8.61404542 C88.6491848,6.72691376 88.3171617,6.20387727 87.2140847,6.20387727 L86.3670256,6.20387727 C85.6489755,6.20387727 85.3419541,6.9639303 85.3419541,7.56497223 L85.3419541,14.1654327 C85.3429542,16.3385843 85.6249738,16.4455918 87.189083,16.548599 C87.3420936,16.7046099 87.3420936,17.2556483 87.189083,17.4116592 C86.0850059,17.3866575 85.4449613,17.3586555 84.3408842,17.3586555 C83.2128055,17.3586555 82.545759,17.3846573 81.4676838,17.4116592 C81.3156732,17.2556483 81.3156732,16.7046099 81.4676838,16.548599 C83.032793,16.4175899 83.3158127,16.3385843 83.3158127,14.1654327 L83.3158127,7.53997049 C83.3158127,6.9639303 83.0597949,6.20387727 82.315743,6.20387727 L81.2116659,6.20387727 C80.0575854,6.20387727 79.7495639,6.72691376 79.2365281,8.61404542 C79.005512,8.63604696 78.7734958,8.6180457 78.5434798,8.53403984 C78.7484941,7.30495409 78.7484941,6.09886995 78.7484941,4.94778964 C78.9615089,4.92178782 79.1785241,4.90478664 79.3915389,4.94778964 C79.4425425,5.10380052 79.6725586,5.31281511 80.0825872,5.31281511 L88.3171617,5.31281511 C88.7271903,5.31281511 88.9582064,5.10380052 89.0082099,4.94778964 C89.2212247,4.88478524 89.4362397,4.87178434 89.6492546,4.94778964 Z M109.808661,5.28481315 L109.830663,5.33781685 L109.830663,5.90985676 C109.830663,5.9878622 109.774659,6.03986583 109.674652,6.03986583 L109.127614,6.09286953 C108.319557,6.1698749 108.035537,6.37888948 108.035537,6.9009259 L108.041538,15.55953 C108.041538,16.1315699 108.301556,16.4695935 109.133614,16.5475989 L109.678652,16.6006026 C109.756657,16.6006026 109.834663,16.6526063 109.834663,16.7556134 L109.834663,17.3016515 L109.809661,17.3546552 C109.809661,17.3546552 108.008178,17.3063605 107.145086,17.3019701 L107.028467,17.3016515 C106.299416,17.3016515 104.272275,17.3546552 104.272275,17.3546552 L104.219271,17.3016515 L104.219271,16.7556134 C104.219271,16.6516062 104.297277,16.6006026 104.401284,16.6006026 L104.92232,16.5475989 C105.77938,16.4695935 106.039398,16.0535645 106.039398,15.55953 L106.039398,6.90192597 C106.039398,6.33288627 105.726376,6.17287511 104.92232,6.09586974 L104.401284,6.04186597 C104.297277,6.04186597 104.219271,6.0178643 104.219271,5.93785871 L104.219271,5.33781685 L104.244273,5.28481315 C104.244273,5.28481315 106.116831,5.33310784 106.986384,5.33749827 L107.103472,5.33781685 C107.801521,5.33781685 109.808661,5.28481315 109.808661,5.28481315 Z M120.497407,0.190457732 C120.858432,0.190457732 120.989441,0.452476013 121.196456,0.971512224 L126.526827,15.0644955 C126.891853,16.0805663 127.413889,16.4685934 128.452962,16.5726007 L128.737982,16.5976024 C128.868991,16.5976024 129,16.6736077 129,16.806617 L129,17.2976513 L128.921995,17.351655 C128.921995,17.351655 127.090169,17.3022452 126.041661,17.2979486 L125.903784,17.2976513 C124.99372,17.2976513 122.444543,17.351655 122.444543,17.351655 L122.421541,17.2976513 L122.421541,16.806617 C122.421541,16.6736077 122.474545,16.5976024 122.607554,16.5976024 L123.336605,16.5435986 C124.321674,16.4665933 124.689699,16.1515713 124.428681,15.4275208 L122.84257,11.0312141 L117.433193,11.0312141 C116.808149,11.0312141 116.652139,11.1352213 116.52313,11.4702447 L115.013024,15.2415078 C114.751006,15.8985536 115.089029,16.4695935 116.052097,16.5475989 L116.806149,16.6006026 C116.910157,16.6006026 117.015164,16.6786081 117.015164,16.8076171 L117.015164,17.3016515 L116.96116,17.3546552 C116.96116,17.3546552 114.127962,17.3016515 113.502919,17.3016515 C112.826872,17.3016515 111.162756,17.3546552 111.162756,17.3546552 L111.109752,17.3016515 L111.109752,16.8076171 C111.109752,16.6786081 111.187757,16.6006026 111.318766,16.6006026 C112.463846,16.5225972 113.111892,16.3135826 113.838942,14.6504666 L119.610345,1.12852318 C119.895365,0.452476013 120.104379,0.190457732 120.497407,0.190457732 Z M38.7667047,5.21580834 L38.7917064,5.26781197 L38.7917064,5.83985188 C38.7917064,5.91785732 38.7397028,5.94385913 38.6366956,5.96986095 L38.3506756,6.02286464 C37.5436193,6.17787546 37.2585994,6.3088846 37.2585994,6.82992095 L37.2585994,10.7591951 C38.1156592,10.7591951 38.6106938,10.3211645 39.7547736,9.09507898 C40.7938461,7.94899903 41.6009024,6.99093218 41.6009024,6.49189737 C41.6009024,6.28288279 41.3668861,6.05286674 40.8468498,5.97086102 C40.7428425,5.94685934 40.6908389,5.91885739 40.6908389,5.84085195 L40.6908389,5.24081008 L40.7168407,5.21680841 C40.7168407,5.21680841 42.6349601,5.26419188 43.4651649,5.26849947 L43.5760402,5.26881204 C44.2520874,5.26881204 45.3961672,5.21680841 45.3961672,5.21680841 L45.4741726,5.24081008 L45.4741726,5.84085195 C45.4741726,5.91885739 45.3961672,5.97086102 45.2661581,5.97086102 C44.2510873,6.04886646 43.5500384,6.10087009 42.6139731,7.16694446 L40.3778171,9.73912392 C39.9367863,10.2091567 39.7797753,10.4931765 39.7797753,10.7021911 C39.7797753,10.858202 39.8837826,10.987211 40.0137917,11.1412217 L43.9400656,15.8735519 C44.2520874,16.2345771 44.8761309,16.3935882 45.3961672,16.4965954 L45.5261762,16.519597 C45.6041817,16.5445987 45.7081889,16.5966023 45.7081889,16.6746078 L45.7081889,17.2206459 L45.6311836,17.2466477 C45.6311836,17.2466477 44.409562,17.223615 43.6596949,17.2209052 L43.5250366,17.2206459 C42.8749913,17.2206459 41.938926,17.2466477 41.938926,17.2466477 L41.9129242,17.2206459 L41.9129242,16.907624 C41.9129242,16.5696005 41.8879224,16.2845806 41.5228969,15.8685516 L38.6366956,12.2803012 C38.2456683,11.7592649 37.8296393,11.6312559 37.2585994,11.6312559 L37.2585994,15.488525 C37.2585994,16.0605649 37.596623,16.3465849 38.3506756,16.476594 L38.6366956,16.5295977 C38.714701,16.5545994 38.7917064,16.5806012 38.7917064,16.6846085 L38.7917064,17.2306466 L38.7667047,17.2836503 C38.7667047,17.2836503 37.1275903,17.2306466 36.3485359,17.2306466 C35.6194851,17.2306466 33.4883364,17.2836503 33.4883364,17.2836503 L33.4363328,17.2306466 L33.4363328,16.6846085 C33.4363328,16.5806012 33.5143382,16.5295977 33.6183455,16.5295977 L34.1393818,16.476594 C34.9184362,16.3985885 35.2574598,15.9825595 35.2574598,15.488525 L35.2574598,6.82992095 C35.2574598,6.26188132 34.9714399,6.10087009 34.1393818,6.02486478 L33.6183455,5.97086102 C33.5143382,5.97086102 33.4363328,5.94685934 33.4363328,5.86685376 L33.4363328,5.26781197 L33.4623346,5.21580834 C33.4623346,5.21580834 35.4131096,5.26338822 36.2881657,5.2675256 L36.4005396,5.26781197 C37.1295904,5.26781197 38.7667047,5.21580834 38.7667047,5.21580834 Z M31.3521874,5.21580834 L31.3781892,5.26781197 L31.3781892,5.83985188 C31.3781892,5.91785732 31.3251855,5.96986095 31.2221783,5.96986095 L30.6761402,6.02286464 C29.8690839,6.09987002 29.5830639,6.3088846 29.5830639,6.82992095 L29.584064,15.488525 C29.584064,16.0605649 29.8450822,16.3985885 30.6771403,16.476594 L31.2231784,16.5295977 C31.3011838,16.5295977 31.3791892,16.5806012 31.3791892,16.6846085 L31.3791892,17.2306466 L31.3531874,17.2836503 C31.3531874,17.2836503 29.5517043,17.2353556 28.6877429,17.2309652 L28.5709933,17.2306466 C27.8429425,17.2306466 25.814801,17.2836503 25.814801,17.2836503 L25.7627974,17.2306466 L25.7627974,16.6846085 C25.7627974,16.5806012 25.8408028,16.5295977 25.9448101,16.5295977 L26.4658465,16.476594 C27.3229062,16.3985885 27.5829244,15.9825595 27.5829244,15.488525 L27.5829244,6.82992095 C27.5829244,6.26188132 27.2699026,6.10087009 26.4658465,6.02486478 L25.9448101,5.97086102 C25.8408028,5.97086102 25.7627974,5.94685934 25.7627974,5.86685376 L25.7627974,5.26781197 L25.7877991,5.21580834 C25.7877991,5.21580834 27.6603575,5.26319181 28.5307802,5.2674994 L28.6479987,5.26781197 C29.3500477,5.26781197 31.3521874,5.21580834 31.3521874,5.21580834 Z M76.1413122,5.21580834 L76.196316,5.26781197 C76.2183176,6.38588997 76.4013303,7.40196086 76.5863432,8.38902973 L75.9392981,8.49303698 C75.6542782,7.52996979 75.1612438,6.15287371 73.4971277,6.15287371 L71.4169826,6.15287371 C70.9229481,6.15287371 70.66293,6.33488641 70.66293,6.77591718 L70.66293,10.5471803 L72.6110659,10.5471803 C73.3401168,10.5471803 73.5211294,10.2351585 73.6271368,9.71512224 L73.7811475,9.16908415 C73.7811475,9.09107871 73.8351513,9.03807501 73.9371584,9.03807501 L74.376189,9.03807501 C74.4311929,9.03807501 74.4311929,9.06507689 74.4311929,9.11608045 C74.376189,9.68512015 74.275182,10.4171712 74.275182,11.0412148 C74.275182,11.69026 74.3791892,12.2372982 74.4311929,12.8353399 L74.376189,12.8883436 L73.9371584,12.8883436 C73.8081494,12.8883436 73.7521455,12.8353399 73.7521455,12.7573345 L73.6221364,12.1862947 C73.5181292,11.6652583 73.2841128,11.3792383 72.6040654,11.3792383 L70.6569296,11.3792383 L70.6569296,15.358516 C70.6569296,15.8485502 70.9399493,16.3425846 71.4109822,16.3425846 L73.8811545,16.3425846 C75.207247,16.3425846 75.937298,15.5105266 76.2473196,14.154432 L76.8953648,14.2324374 L76.3743284,17.221646 L76.3213247,17.2736496 C76.3213247,17.2736496 74.7882178,17.221646 74.0081634,17.221646 L69.4568458,17.2306466 C68.6777915,17.2306466 66.8836663,17.2836503 66.8836663,17.2836503 L66.8576645,17.2306466 L66.8576645,16.6586067 C66.8576645,16.6076031 66.8836663,16.5295977 67.0136754,16.5295977 L67.6137172,16.476594 C68.4217736,16.3985885 68.6547899,15.8785523 68.6547899,15.359516 L68.6547899,6.77891739 C68.6547899,6.17887553 68.3427681,6.07586834 67.6137172,6.02486478 L67.0136754,5.97086102 C66.8576645,5.94685934 66.8576645,5.89385564 66.8576645,5.86685376 L66.8576645,5.26781197 L66.8836663,5.21580834 C66.8836663,5.21580834 68.7307105,5.26319181 69.5779385,5.2674994 L73.5141289,5.26781197 C74.2931832,5.26781197 76.1413122,5.21580834 76.1413122,5.21580834 Z M53.0427007,5.21580834 L53.0687025,5.26781197 L53.0687025,5.83985188 C53.0687025,5.91785732 53.0166988,5.96986095 52.9126916,5.96986095 L52.3666535,6.02286464 C51.5605973,6.09987002 51.2745773,6.3088846 51.2745773,6.82992095 L51.2755774,15.488525 C51.2755774,16.0605649 51.5355955,16.3985885 52.3676536,16.476594 L52.9136917,16.5295977 C52.9916971,16.5295977 53.0697025,16.5806012 53.0697025,16.6846085 L53.0697025,17.2306466 L53.0437007,17.2836503 C53.0437007,17.2836503 51.2431288,17.2353556 50.3792503,17.2309652 L50.2625067,17.2306466 C49.5334558,17.2306466 47.5063144,17.2836503 47.5063144,17.2836503 L47.4533107,17.2306466 L47.4533107,16.6846085 C47.4533107,16.5806012 47.5313161,16.5295977 47.6363235,16.5295977 L48.1563597,16.476594 C49.0144196,16.3985885 49.2744378,15.9825595 49.2744378,15.488525 L49.2744378,6.82992095 C49.2744378,6.26188132 48.9614159,6.10087009 48.1563597,6.02486478 L47.6363235,5.97086102 C47.5323162,5.97086102 47.4533107,5.94685934 47.4533107,5.86685376 L47.4533107,5.26781197 L47.4793125,5.21580834 C47.4793125,5.21580834 49.3509596,5.26319181 50.2221693,5.2674994 L50.3395121,5.26781197 C51.040561,5.26781197 53.0427007,5.21580834 53.0427007,5.21580834 Z M60.6122288,5.21680841 C64.3024862,5.21680841 64.9785334,7.03593532 64.9785334,8.3900298 C64.9785334,9.95113871 64.2244808,12.3943092 60.5342233,12.3943092 C59.885178,12.3943092 59.3641417,12.3413055 58.895109,12.134291 L58.895109,15.616534 C58.895109,16.1855737 59.2071307,16.319583 60.0401889,16.448592 L60.5612252,16.5265975 C60.6652325,16.5495991 60.745238,16.5796012 60.745238,16.6796081 L60.745238,17.2256462 L60.7222364,17.2806501 C60.7222364,17.2806501 58.6410912,17.2256462 57.8340349,17.2256462 C57.1059841,17.2256462 55.1558481,17.2806501 55.1558481,17.2806501 L55.1298463,17.2256462 L55.1298463,16.6796081 C55.1298463,16.5756009 55.18285,16.5495991 55.2858572,16.5265975 L55.8318952,16.448592 C56.6389516,16.3445848 56.8979696,16.1105684 56.8979696,15.616534 L56.8949694,6.88092451 C56.8949694,6.07486827 56.5569458,6.04886646 55.3338605,5.97086102 C55.1788497,5.97086102 55.1518478,5.89385564 55.1518478,5.84085195 L55.1518478,5.24281022 L55.2038514,5.21680841 C55.5948787,5.21680841 57.1279857,5.26881204 57.8830384,5.26881204 C58.6110891,5.26881204 59.6511617,5.21680841 60.6122288,5.21680841 Z M60.4562179,5.97186109 C59.2071307,5.97186109 58.895109,6.20587741 58.895109,6.88192458 L58.896109,11.4062402 C59.4161453,11.6152548 60.0661907,11.6402566 60.5852269,11.6402566 C62.1463358,11.6402566 62.8983883,10.7021911 62.8983883,8.70205156 C62.8983883,6.46589555 61.8843175,5.97186109 60.4562179,5.97186109 Z M119.900365,3.00165386 L119.849362,3.00165386 L117.24818,9.60611464 C117.144173,9.87013306 117.323185,9.94413822 117.895225,9.94413822 L122.422541,9.94413822 L122.422541,9.94313815 L119.900365,3.00165386 Z"/>
	</g>
</svg>

<svg xmlns="http://www.w3.org/2000/svg" width="138" height="21" viewBox="0 0 129 18"><path fill="#72777D" d="M97.469 4.915c2.054 0 3.207.419 4.183.419.252 1.18.301 2.274.307 3.352-.256.168-.512.157-.77.08-.308-1.834-1.513-2.985-3.564-2.985-1.924 0-3.924.916-3.924 5.314 0 2.592 1.486 5.396 4.027 5.396 1.717 0 2.614-.523 3.795-1.939.254.09.395.351.514.522-1.205 1.65-2.438 2.41-4.438 2.41-1.898 0-3.337-.531-4.361-1.492-1.259-1.186-1.772-2.974-1.772-4.636 0-3.824 2.618-6.441 6.003-6.441zM15.216.005c1.279-.01 3.986-.002 4.532 0h.097l.058.056v.496c0 .14-.078.205-.229.205-.746.036-.9.108-1.173.503-.148.212-.442.673-.747 1.19l-2.618 4.897-.073.152 3.2 6.546.192.053 5.04-11.961c.177-.482.149-.824-.076-1.025-.226-.193-.385-.312-.97-.337l-.472-.02a.261.261 0 01-.166-.064.172.172 0 01-.08-.145V.053l.073-.05h5.693l.059.05v.498c0 .135-.077.203-.23.203-.745.033-1.298.196-1.656.485-.358.29-.64.689-.84 1.213 0 0-4.636 10.606-6.222 14.136-.607 1.156-1.204 1.05-1.729-.033-.657-1.354-2.021-4.338-3.024-6.546-1.072 2.213-2.541 5.213-3.27 6.563-.708 1.23-1.29 1.069-1.755.03-1.611-3.8-4.92-10.475-6.477-14.215-.288-.69-.505-1.131-.71-1.307C1.437.908 1.01.802.358.766.119.738 0 .682 0 .588v-.52L.059.014c.903-.004 4.769 0 5.886.001h.303l.06.052v.495c0 .138-.088.203-.259.203l-.646.027c-.554.023-.83.189-.83.496 0 .143.058.376.187.688C6 5 10.283 14.03 10.283 14.03l.157.041 2.76-5.507-.553-1.224-1.9-3.73s-.365-.746-.49-.994C9.423.967 9.44.879 8.597.764 8.363.734 8.24.704 8.24.586V.063l.07-.05h.328C10.27.01 13.223.01 13.223.01l.13.043v.521c0 .12-.085.18-.258.18l-.356.052c-.9.07-.753.438-.155 1.629l1.821 3.725 2.014-4.018c.316-.686.277-.892.157-1.055l-.027-.034c-.08-.094-.349-.25-.932-.272l-.229-.025a.271.271 0 01-.165-.059.17.17 0 01-.078-.146V.055zM89.65 4.947c0 1.15.026 2.33.207 3.586-.195.123-.433.135-.693.08-.514-1.887-.846-2.41-1.949-2.41h-.847c-.718 0-1.025.76-1.025 1.361v6.6c.001 2.174.283 2.28 1.847 2.384.153.156.153.707 0 .863-1.104-.025-1.744-.053-2.848-.053-1.128 0-1.795.026-2.873.053-.152-.156-.152-.707 0-.863 1.565-.131 1.848-.21 1.848-2.384V7.54c0-.576-.256-1.336-1-1.336h-1.104c-1.154 0-1.462.523-1.975 2.41a1.558 1.558 0 01-.694-.08c.205-1.229.205-2.435.205-3.586a2.01 2.01 0 01.644 0c.05.156.28.365.69.365h8.235c.41 0 .641-.21.691-.365.213-.063.428-.076.641 0zm20.16.337l.022.053v.572c0 .078-.056.13-.156.13l-.547.053c-.808.077-1.092.286-1.092.808l.006 8.659c0 .572.26.91 1.092.988l.545.053c.078 0 .156.052.156.155v.546l-.025.053s-1.802-.049-2.665-.053h-.117c-.729 0-2.756.053-2.756.053l-.053-.053v-.546c0-.104.078-.155.182-.155l.521-.053c.857-.078 1.117-.494 1.117-.988V6.902c0-.57-.313-.73-1.117-.806l-.52-.054c-.105 0-.183-.024-.183-.104v-.6l.025-.053s1.873.048 2.742.052h.117c.699 0 2.706-.052 2.706-.052zM120.497.19c.361 0 .492.262.7.782l5.33 14.092c.365 1.017.887 1.405 1.926 1.509l.285.025c.131 0 .262.076.262.209v.49l-.078.055s-1.832-.05-2.88-.054h-.138c-.91 0-3.46.054-3.46.054l-.022-.054v-.491c0-.133.053-.21.186-.21l.729-.053c.985-.077 1.353-.392 1.092-1.116l-1.586-4.397h-5.41c-.625 0-.78.104-.91.44l-1.51 3.77c-.262.658.076 1.229 1.04 1.307l.753.053c.104 0 .21.078.21.207v.494l-.055.053s-2.833-.053-3.458-.053c-.676 0-2.34.053-2.34.053l-.053-.053v-.494c0-.13.078-.207.209-.207 1.145-.078 1.793-.287 2.52-1.95l5.771-13.522c.285-.677.494-.939.887-.939zm-81.73 5.026l.025.052v.572c0 .078-.052.104-.155.13l-.286.053c-.807.155-1.092.286-1.092.807v3.93c.857 0 1.352-.439 2.496-1.665C40.794 7.95 41.6 6.991 41.6 6.492c0-.21-.234-.44-.754-.521-.104-.024-.156-.052-.156-.13v-.6l.026-.024s1.918.047 2.748.051h.111c.676 0 1.82-.051 1.82-.051l.078.024v.6c0 .078-.078.13-.208.13-1.015.078-1.716.13-2.652 1.196l-2.236 2.572c-.441.47-.598.754-.598.963 0 .156.104.285.234.44l3.926 4.732c.312.36.936.52 1.456.623l.13.023c.078.025.182.077.182.155v.546l-.077.026s-1.221-.023-1.971-.026h-.135c-.65 0-1.586.026-1.586.026l-.026-.026v-.313c0-.338-.025-.623-.39-1.04l-2.886-3.588c-.391-.52-.807-.649-1.378-.649v3.858c0 .572.338.858 1.092.988l.286.053c.078.025.155.05.155.155v.546l-.025.053s-1.64-.053-2.418-.053c-.73 0-2.86.053-2.86.053l-.053-.053v-.546c0-.104.078-.155.182-.155l.521-.053c.78-.078 1.118-.494 1.118-.988v-8.66c0-.567-.286-.728-1.118-.804l-.52-.054c-.105 0-.183-.024-.183-.104v-.6l.026-.051s1.951.047 2.826.052h.113c.729 0 2.366-.052 2.366-.052zm-7.415 0l.026.052v.572c0 .078-.053.13-.156.13l-.546.053c-.807.077-1.093.286-1.093.807l.001 8.659c0 .572.261.91 1.093.988l.546.053c.078 0 .156.05.156.155v.546l-.026.053s-1.801-.049-2.665-.053h-.117c-.728 0-2.756.053-2.756.053l-.052-.053v-.546c0-.104.078-.155.182-.155l.52-.053c.858-.078 1.118-.494 1.118-.988v-8.66c0-.567-.313-.728-1.117-.804l-.521-.054c-.104 0-.182-.024-.182-.104v-.6l.025-.051s1.872.047 2.743.051h.117c.702 0 2.704-.051 2.704-.051zm44.79 0l.054.052c.022 1.118.205 2.134.39 3.121l-.647.104c-.285-.963-.778-2.34-2.442-2.34h-2.08c-.494 0-.754.182-.754.623v3.771h1.948c.73 0 .91-.312 1.016-.832l.154-.546c0-.078.054-.13.156-.13h.44c.054 0 .054.026.054.077-.055.57-.156 1.301-.156 1.925 0 .65.104 1.196.156 1.794l-.055.053h-.439c-.129 0-.185-.053-.185-.13l-.13-.572c-.104-.52-.338-.807-1.018-.807h-1.947v3.98c0 .49.283.984.754.984h2.47c1.326 0 2.056-.832 2.366-2.189l.648.078-.52 2.99-.054.052s-1.533-.052-2.313-.052l-4.551.009c-.78 0-2.573.053-2.573.053l-.026-.053v-.572c0-.051.026-.13.156-.13l.6-.052c.808-.078 1.04-.598 1.04-1.117V6.779c0-.6-.311-.703-1.04-.754l-.6-.054c-.156-.024-.156-.077-.156-.104v-.6l.026-.051s1.847.047 2.694.051h3.936c.78 0 2.627-.051 2.627-.051zm-23.1 0l.027.052v.572c0 .078-.052.13-.156.13l-.546.053c-.806.077-1.092.286-1.092.807v8.659c0 .572.26.91 1.093.988l.546.053c.078 0 .156.05.156.155v.546l-.026.053s-1.8-.049-2.665-.053h-.116c-.73 0-2.757.053-2.757.053l-.053-.053v-.546c0-.104.078-.155.183-.155l.52-.053c.858-.078 1.118-.494 1.118-.988v-8.66c0-.567-.313-.728-1.118-.804l-.52-.054c-.104 0-.183-.024-.183-.104v-.6l.026-.051s1.872.047 2.743.051h.118c.7 0 2.703-.051 2.703-.051zm7.57 0c3.69 0 4.367 1.82 4.367 3.174 0 1.561-.755 4.004-4.445 4.004-.649 0-1.17-.053-1.639-.26v3.483c0 .569.312.703 1.145.832l.521.078c.104.023.184.053.184.153v.546l-.023.055s-2.08-.055-2.888-.055c-.728 0-2.678.055-2.678.055l-.026-.055v-.546c0-.104.053-.13.156-.153l.546-.078c.807-.104 1.066-.338 1.066-.832l-.003-8.736c0-.806-.338-.832-1.561-.91-.155 0-.182-.077-.182-.13v-.598l.052-.026c.39 0 1.924.052 2.679.052.728 0 1.768-.052 2.73-.052zm-.156.756c-1.249 0-1.56.234-1.56.91v4.524c.52.21 1.17.234 1.69.234 1.56 0 2.312-.938 2.312-2.938 0-2.236-1.014-2.73-2.442-2.73zm59.444-2.97h-.05l-2.602 6.604c-.104.264.075.338.647.338h4.528L119.9 3.001z"/></svg>
